; generated by PrusaSlicer 2.5.0+win64 on 2022-12-01 at 20:24:01 UTC

; 

; external perimeters extrusion width = 0.45mm
; perimeters extrusion width = 0.45mm
; infill extrusion width = 0.45mm
; solid infill extrusion width = 0.45mm
; top infill extrusion width = 0.40mm
; first layer extrusion width = 0.60mm

M107
M190 S60 ; set bed temperature and wait for it to be reached
M104 S225 ; set temperature
;TYPE:Custom
G28 ; home all axes
G1 Z5 F5000 ; lift nozzle
M109 S225 ; set temperature and wait for it to be reached
G21 ; set units to millimeters
G90 ; use absolute coordinates
M82 ; use absolute distances for extrusion
G92 E0
; Filament gcode
M107
;LAYER_CHANGE
;Z:0.3
;HEIGHT:0.3
G1 Z.3 F4800
G1 E-2 F2400
G92 E0
G1 X-1.333 Y3.287 F4800
G1 E2 F2400
;TYPE:Skirt/Brim
;WIDTH:0.6
G1 F1800
G1 X-.211 Y3.742 E2.08094
G1 X.946 Y4.503 E2.17339
G1 X1.931 Y5.474 E2.26585
G1 X2.708 Y6.619 E2.35829
G1 X3.247 Y7.894 E2.45075
G1 X3.538 Y9.352 E2.55008
G1 X3.538 Y52.233 E5.41475
G1 X3.277 Y53.592 E5.50722
G1 X2.737 Y54.912 E5.60247
G1 X1.931 Y56.111 E5.69899
G1 X.945 Y57.082 E5.79145
G1 X-.174 Y57.823 E5.88111
G1 X-1.394 Y58.333 E5.96949
G1 X-2.75 Y58.613 E6.06194
G1 X-3.493 Y58.655 E6.11167
G1 X-71.693 Y58.655 E10.6678
G1 X-72.436 Y58.613 E10.71753
G1 X-73.693 Y58.363 E10.80312
G1 X-74.975 Y57.843 E10.89558
G1 X-76.211 Y57.017 E10.99489
G1 X-77.183 Y56.031 E11.08735
G1 X-77.895 Y54.966 E11.17295
G1 X-78.433 Y53.691 E11.26539
G1 X-78.713 Y52.336 E11.35784
G1 X-78.755 Y51.593 E11.40758
G1 X-78.755 Y9.993 E14.18668
G1 X-78.713 Y9.249 E14.23643
G1 X-78.463 Y7.993 E14.32201
G1 X-77.943 Y6.71 E14.41445
G1 X-77.183 Y5.554 E14.50692
G1 X-76.132 Y4.503 E14.60624
G1 X-75.066 Y3.791 E14.69183
G1 X-73.792 Y3.252 E14.78427
G1 X-72.436 Y2.972 E14.87672
G1 X-71.693 Y2.931 E14.92646
G1 X-2.852 Y2.962 E19.52539
G1 X-1.493 Y3.222 E19.61784
G1 X-1.389 Y3.264 E19.62535
G1 E17.62535 F2400
G92 E0
G1 X-41.399 Y12.395 F4800
G1 E2 F2400
;TYPE:Solid infill
;WIDTH:0.605297
G1 F900
G1 X-42.252 Y11.542 E2.08139
G1 X-43.017 Y11.542 E2.133
G1 X-41.64 Y12.919 E2.26438
G1 X-41.64 Y13.684 E2.31599
G1 X-43.782 Y11.541 E2.52037
G1 X-44.547 Y11.541 E2.57198
G1 X-41.64 Y14.448 E2.84935
G1 X-41.64 Y15.213 E2.90096
G1 X-45.312 Y11.541 E3.25133
G1 X-46.077 Y11.541 E3.30294
G1 X-41.64 Y15.978 E3.72629
G1 X-41.64 Y16.743 E3.7779
G1 X-46.842 Y11.541 E4.27425
G1 X-47.607 Y11.541 E4.32587
G1 X-41.64 Y17.508 E4.89521
G1 X-41.64 Y18.273 E4.94682
G1 X-48.372 Y11.541 E5.58915
G1 X-49.137 Y11.541 E5.64077
G1 X-41.64 Y19.038 E6.35609
G1 X-41.64 Y19.803 E6.4077
G1 X-49.902 Y11.541 E7.19602
G1 X-50.667 Y11.541 E7.24764
G1 X-41.64 Y20.568 E8.10895
G1 X-41.64 Y21.333 E8.16056
G1 X-51.432 Y11.541 E9.09487
G1 X-52.197 Y11.541 E9.14648
G1 X-41.64 Y22.098 E10.15378
G1 X-41.64 Y22.863 E10.20539
G1 X-52.962 Y11.541 E11.28568
G1 X-53.727 Y11.541 E11.3373
G1 X-41.64 Y23.628 E12.49058
G1 X-41.64 Y24.393 E12.54219
G1 X-54.492 Y11.541 E13.76847
G1 X-55.257 Y11.54 E13.82009
G1 X-41.64 Y25.158 E15.11936
G1 X-41.64 Y25.923 E15.17097
G1 X-56.022 Y11.54 E16.54323
G1 X-56.787 Y11.54 E16.59485
G1 X-41.64 Y26.688 E18.04011
G1 X-41.64 Y27.453 E18.09171
G1 X-57.552 Y11.54 E19.60997
G1 X-58.317 Y11.54 E19.66158
G1 X-41.64 Y28.218 E21.25282
G1 X-41.64 Y28.983 E21.30443
G1 X-59.082 Y11.54 E22.96867
G1 X-59.847 Y11.54 E23.02029
G1 X-41.64 Y29.748 E24.75752
G1 X-41.64 Y30.513 E24.80913
G1 X-60.612 Y11.54 E26.61935
G1 X-61.377 Y11.54 E26.67096
G1 X-41.64 Y31.278 E28.55418
G1 X-41.64 Y32.043 E28.60579
G1 X-62.142 Y11.54 E30.562
G1 X-62.907 Y11.54 E30.61361
G1 X-41.64 Y32.808 E32.64282
G1 X-41.64 Y33.573 E32.69442
G1 X-63.673 Y11.54 E34.79662
G1 X-64.438 Y11.54 E34.84823
G1 X-41.64 Y34.338 E37.02342
G1 X-41.64 Y35.103 E37.07503
G1 X-65.203 Y11.54 E39.32321
G1 X-65.968 Y11.54 E39.37483
G1 X-41.64 Y35.868 E41.696
G1 X-41.64 Y36.633 E41.74761
G1 X-66.733 Y11.54 E44.14178
G1 X-67.498 Y11.539 E44.19339
G1 X-41.64 Y37.398 E46.66056
G1 X-41.64 Y38.163 E46.71217
G1 X-68.263 Y11.539 E49.25232
G1 X-69.028 Y11.539 E49.30393
G1 X-41.64 Y38.928 E51.91708
G1 X-41.64 Y39.693 E51.96869
G1 X-69.793 Y11.539 E54.65483
G1 X-70.146 Y11.539 E54.67869
G1 X-70.146 Y11.951 E54.70644
G1 X-41.64 Y40.457 E57.42632
G1 X-41.64 Y41.222 E57.47793
G1 X-70.146 Y12.716 E60.19781
G1 X-70.146 Y13.481 E60.24942
G1 X-41.64 Y41.987 E62.96931
G1 X-41.64 Y42.752 E63.02091
G1 X-70.146 Y14.246 E65.7408
G1 X-70.146 Y15.01 E65.79241
G1 X-41.64 Y43.517 E68.51229
G1 X-41.64 Y44.282 E68.5639
G1 X-70.146 Y15.775 E71.28378
G1 X-70.146 Y16.54 E71.33539
G1 X-41.64 Y45.047 E74.05527
G1 X-41.64 Y45.812 E74.10688
G1 X-70.146 Y17.305 E76.82676
G1 X-70.146 Y18.07 E76.87837
G1 X-41.64 Y46.577 E79.59825
G1 X-41.64 Y47.342 E79.64986
G1 X-70.146 Y18.835 E82.36974
G1 X-70.146 Y19.6 E82.42135
G1 X-41.64 Y48.107 E85.14123
G1 X-41.64 Y48.872 E85.19284
G1 X-70.146 Y20.365 E87.91272
G1 X-70.146 Y21.13 E87.96433
G1 X-41.64 Y49.637 E90.68422
G1 X-41.64 Y50.046 E90.7118
G1 X-41.996 Y50.046 E90.73583
G1 X-70.146 Y21.895 E93.42173
G1 X-70.146 Y22.66 E93.47334
G1 X-42.761 Y50.046 E96.08626
G1 X-43.526 Y50.046 E96.13787
G1 X-70.146 Y23.425 E98.6778
G1 X-70.146 Y24.19 E98.72941
G1 X-44.291 Y50.046 E101.19635
G1 X-45.056 Y50.046 E101.24796
G1 X-70.146 Y24.955 E103.64192
G1 X-70.146 Y25.72 E103.69353
G1 X-45.821 Y50.046 E106.0145
G1 X-46.585 Y50.046 E106.06611
G1 X-70.146 Y26.485 E108.31409
G1 X-70.146 Y27.25 E108.3657
G1 X-47.35 Y50.046 E110.5407
G1 X-48.115 Y50.046 E110.59231
G1 X-70.146 Y28.015 E112.69432
G1 X-70.146 Y28.78 E112.74592
G1 X-48.88 Y50.046 E114.77495
G1 X-49.645 Y50.046 E114.82656
G1 X-70.146 Y29.545 E116.78259
G1 X-70.146 Y30.31 E116.8342
G1 X-50.41 Y50.046 E118.71725
G1 X-51.175 Y50.046 E118.76886
G1 X-70.146 Y31.075 E120.57892
G1 X-70.146 Y31.84 E120.63053
G1 X-51.94 Y50.046 E122.36761
G1 X-52.705 Y50.046 E122.41922
G1 X-70.146 Y32.605 E124.0833
G1 X-70.146 Y33.37 E124.13491
G1 X-53.47 Y50.046 E125.72602
G1 X-54.235 Y50.046 E125.77762
G1 X-70.146 Y34.135 E127.29574
G1 X-70.146 Y34.9 E127.34735
G1 X-55 Y50.046 E128.79248
G1 X-55.765 Y50.046 E128.84409
G1 X-70.146 Y35.665 E130.21623
G1 X-70.146 Y36.43 E130.26784
G1 X-56.53 Y50.046 E131.56699
G1 X-57.295 Y50.046 E131.6186
G1 X-70.146 Y37.195 E132.84476
G1 X-70.146 Y37.96 E132.89637
G1 X-58.06 Y50.046 E134.04955
G1 X-58.825 Y50.046 E134.10116
G1 X-70.146 Y38.725 E135.18136
G1 X-70.146 Y39.49 E135.23297
G1 X-59.59 Y50.046 E136.24017
G1 X-60.355 Y50.046 E136.29178
G1 X-70.146 Y40.255 E137.226
G1 X-70.146 Y41.019 E137.27761
G1 X-61.12 Y50.046 E138.13884
G1 X-61.885 Y50.046 E138.19045
G1 X-70.146 Y41.784 E138.9787
G1 X-70.146 Y42.549 E139.03031
G1 X-62.65 Y50.046 E139.74556
G1 X-63.415 Y50.046 E139.79717
G1 X-70.146 Y43.314 E140.43945
G1 X-70.146 Y44.079 E140.49106
G1 X-64.18 Y50.046 E141.06034
G1 X-64.945 Y50.046 E141.11195
G1 X-70.146 Y44.844 E141.60825
G1 X-70.146 Y45.609 E141.65986
G1 X-65.71 Y50.046 E142.08317
G1 X-66.475 Y50.046 E142.13478
G1 X-70.146 Y46.374 E142.4851
G1 X-70.146 Y47.139 E142.53671
G1 X-67.24 Y50.046 E142.81405
G1 X-68.005 Y50.046 E142.86566
G1 X-70.146 Y47.904 E143.07001
G1 X-70.146 Y48.669 E143.12162
G1 X-68.77 Y50.046 E143.25298
G1 X-69.535 Y50.046 E143.30459
G1 X-70.387 Y49.193 E143.38596
G1 E141.38596 F2400
G92 E0
G1 X-41.238 Y11.14 F4800
G1 E2 F2400
;TYPE:Perimeter
;WIDTH:0.6
G1 F1500
G1 X-41.238 Y50.448 E4.62597
G1 X-70.548 Y50.448 E6.58405
G1 X-70.548 Y11.138 E9.21018
G1 X-41.298 Y11.14 E11.16425
G1 X-40.702 Y10.604 F4800
G1 F1500
G1 X-40.702 Y50.983 E13.86178
G1 X-71.084 Y50.983 E15.89143
G1 X-71.084 Y10.602 E18.58913
G1 X-40.762 Y10.604 E20.61477
G1 X-40.167 Y10.069 F4800
;TYPE:External perimeter
G1 F900
G1 X-40.167 Y51.519 E23.38386
G1 X-71.619 Y51.519 E25.48507
G1 X-71.619 Y10.066 E28.25433
G1 X-40.227 Y10.069 E30.35154
G1 X-40.253 Y10.46 F4800
G1 E28.35154 F2400
G92 E0
G1 X-34.816 Y10.424 F4800
G1 X-3.77 Y10.27
G1 X-3.77 Y12.395
G1 X-4.799 Y12.395
G1 E2 F2400
;TYPE:Solid infill
;WIDTH:0.605297
G1 F900
G1 X-5.652 Y11.542 E2.08139
G1 X-6.417 Y11.542 E2.133
G1 X-5.04 Y12.919 E2.26438
G1 X-5.04 Y13.684 E2.31599
G1 X-7.182 Y11.541 E2.52037
G1 X-7.947 Y11.541 E2.57198
G1 X-5.04 Y14.448 E2.84935
G1 X-5.04 Y15.213 E2.90096
G1 X-8.712 Y11.541 E3.25133
G1 X-9.477 Y11.541 E3.30294
G1 X-5.04 Y15.978 E3.72629
G1 X-5.04 Y16.743 E3.7779
G1 X-10.242 Y11.541 E4.27425
G1 X-11.007 Y11.541 E4.32587
G1 X-5.04 Y17.508 E4.89521
G1 X-5.04 Y18.273 E4.94682
G1 X-11.772 Y11.541 E5.58915
G1 X-12.537 Y11.541 E5.64077
G1 X-5.04 Y19.038 E6.35609
G1 X-5.04 Y19.803 E6.4077
G1 X-13.302 Y11.541 E7.19602
G1 X-14.067 Y11.541 E7.24764
G1 X-5.04 Y20.568 E8.10895
G1 X-5.04 Y21.333 E8.16056
G1 X-14.832 Y11.541 E9.09487
G1 X-15.597 Y11.541 E9.14648
G1 X-5.04 Y22.098 E10.15378
G1 X-5.04 Y22.863 E10.20539
G1 X-16.362 Y11.541 E11.28569
G1 X-17.127 Y11.541 E11.3373
G1 X-5.04 Y23.628 E12.49059
G1 X-5.04 Y24.393 E12.5422
G1 X-17.892 Y11.541 E13.76847
G1 X-18.657 Y11.54 E13.82009
G1 X-5.04 Y25.158 E15.11936
G1 X-5.04 Y25.923 E15.17097
G1 X-19.422 Y11.54 E16.54324
G1 X-20.187 Y11.54 E16.59485
G1 X-5.04 Y26.688 E18.04011
G1 X-5.04 Y27.453 E18.09172
G1 X-20.952 Y11.54 E19.60997
G1 X-21.717 Y11.54 E19.66158
G1 X-5.04 Y28.218 E21.25283
G1 X-5.04 Y28.983 E21.30444
G1 X-22.482 Y11.54 E22.96867
G1 X-23.247 Y11.54 E23.02029
G1 X-5.04 Y29.748 E24.75752
G1 X-5.04 Y30.513 E24.80913
G1 X-24.012 Y11.54 E26.61935
G1 X-24.777 Y11.54 E26.67097
G1 X-5.04 Y31.278 E28.55418
G1 X-5.04 Y32.043 E28.60579
G1 X-25.542 Y11.54 E30.562
G1 X-26.307 Y11.54 E30.61362
G1 X-5.04 Y32.808 E32.64282
G1 X-5.04 Y33.573 E32.69443
G1 X-27.073 Y11.54 E34.79662
G1 X-27.838 Y11.54 E34.84824
G1 X-5.04 Y34.338 E37.02343
G1 X-5.04 Y35.103 E37.07504
G1 X-28.603 Y11.54 E39.32322
G1 X-29.368 Y11.54 E39.37483
G1 X-5.04 Y35.868 E41.69601
G1 X-5.04 Y36.633 E41.74762
G1 X-30.133 Y11.54 E44.14179
G1 X-30.898 Y11.539 E44.1934
G1 X-5.04 Y37.398 E46.66056
G1 X-5.04 Y38.163 E46.71217
G1 X-31.663 Y11.539 E49.25232
G1 X-32.428 Y11.539 E49.30394
G1 X-5.04 Y38.928 E51.91709
G1 X-5.04 Y39.693 E51.96869
G1 X-33.193 Y11.539 E54.65484
G1 X-33.546 Y11.539 E54.67869
G1 X-33.546 Y11.951 E54.70645
G1 X-5.04 Y40.457 E57.42633
G1 X-5.04 Y41.222 E57.47794
G1 X-33.546 Y12.716 E60.19782
G1 X-33.546 Y13.481 E60.24943
G1 X-5.04 Y41.987 E62.96931
G1 X-5.04 Y42.752 E63.02092
G1 X-33.546 Y14.246 E65.7408
G1 X-33.546 Y15.01 E65.79241
G1 X-5.04 Y43.517 E68.51229
G1 X-5.04 Y44.282 E68.5639
G1 X-33.546 Y15.775 E71.28378
G1 X-33.546 Y16.54 E71.33539
G1 X-5.04 Y45.047 E74.05527
G1 X-5.04 Y45.812 E74.10688
G1 X-33.546 Y17.305 E76.82676
G1 X-33.546 Y18.07 E76.87837
G1 X-5.04 Y46.577 E79.59825
G1 X-5.04 Y47.342 E79.64986
G1 X-33.546 Y18.835 E82.36975
G1 X-33.546 Y19.6 E82.42136
G1 X-5.04 Y48.107 E85.14124
G1 X-5.04 Y48.872 E85.19285
G1 X-33.546 Y20.365 E87.91273
G1 X-33.546 Y21.13 E87.96434
G1 X-5.04 Y49.637 E90.68422
G1 X-5.04 Y50.046 E90.7118
G1 X-5.396 Y50.046 E90.73583
G1 X-33.546 Y21.895 E93.42173
G1 X-33.546 Y22.66 E93.47334
G1 X-6.161 Y50.046 E96.08626
G1 X-6.926 Y50.046 E96.13787
G1 X-33.546 Y23.425 E98.6778
G1 X-33.546 Y24.19 E98.72941
G1 X-7.691 Y50.046 E101.19635
G1 X-8.456 Y50.046 E101.24796
G1 X-33.546 Y24.955 E103.64192
G1 X-33.546 Y25.72 E103.69353
G1 X-9.221 Y50.046 E106.0145
G1 X-9.985 Y50.046 E106.06611
G1 X-33.546 Y26.485 E108.31409
G1 X-33.546 Y27.25 E108.3657
G1 X-10.75 Y50.046 E110.5407
G1 X-11.515 Y50.046 E110.59231
G1 X-33.546 Y28.015 E112.69431
G1 X-33.546 Y28.78 E112.74592
G1 X-12.28 Y50.046 E114.77495
G1 X-13.045 Y50.046 E114.82656
G1 X-33.546 Y29.545 E116.78259
G1 X-33.546 Y30.31 E116.8342
G1 X-13.81 Y50.046 E118.71725
G1 X-14.575 Y50.046 E118.76886
G1 X-33.546 Y31.075 E120.57892
G1 X-33.546 Y31.84 E120.63053
G1 X-15.34 Y50.046 E122.3676
G1 X-16.105 Y50.046 E122.41921
G1 X-33.546 Y32.605 E124.0833
G1 X-33.546 Y33.37 E124.13491
G1 X-16.87 Y50.046 E125.72601
G1 X-17.635 Y50.046 E125.77762
G1 X-33.546 Y34.135 E127.29574
G1 X-33.546 Y34.9 E127.34734
G1 X-18.4 Y50.046 E128.79247
G1 X-19.165 Y50.046 E128.84408
G1 X-33.546 Y35.665 E130.21622
G1 X-33.546 Y36.43 E130.26783
G1 X-19.93 Y50.046 E131.56698
G1 X-20.695 Y50.046 E131.61859
G1 X-33.546 Y37.195 E132.84476
G1 X-33.546 Y37.96 E132.89637
G1 X-21.46 Y50.046 E134.04955
G1 X-22.225 Y50.046 E134.10116
G1 X-33.546 Y38.725 E135.18135
G1 X-33.546 Y39.49 E135.23296
G1 X-22.99 Y50.046 E136.24017
G1 X-23.755 Y50.046 E136.29178
G1 X-33.546 Y40.255 E137.22599
G1 X-33.546 Y41.019 E137.2776
G1 X-24.52 Y50.046 E138.13884
G1 X-25.285 Y50.046 E138.19044
G1 X-33.546 Y41.784 E138.97869
G1 X-33.546 Y42.549 E139.0303
G1 X-26.05 Y50.046 E139.74556
G1 X-26.815 Y50.046 E139.79717
G1 X-33.546 Y43.314 E140.43944
G1 X-33.546 Y44.079 E140.49105
G1 X-27.58 Y50.046 E141.06033
G1 X-28.345 Y50.046 E141.11194
G1 X-33.546 Y44.844 E141.60824
G1 X-33.546 Y45.609 E141.65985
G1 X-29.11 Y50.046 E142.08316
G1 X-29.875 Y50.046 E142.13477
G1 X-33.546 Y46.374 E142.48509
G1 X-33.546 Y47.139 E142.5367
G1 X-30.64 Y50.046 E142.81404
G1 X-31.405 Y50.046 E142.86565
G1 X-33.546 Y47.904 E143.07
G1 X-33.546 Y48.669 E143.12161
G1 X-32.17 Y50.046 E143.25297
G1 X-32.935 Y50.046 E143.30458
G1 X-33.787 Y49.193 E143.38595
G1 E141.38595 F2400
G92 E0
G1 X-33.948 Y11.138 F4800
G1 E2 F2400
;TYPE:Perimeter
;WIDTH:0.6
G1 F1500
G1 X-4.638 Y11.14 E3.95808
G1 X-4.638 Y50.448 E6.58405
G1 X-33.948 Y50.448 E8.54213
G1 X-33.948 Y11.198 E11.16425
G1 X-34.484 Y10.602 F4800
G1 F1500
G1 X-4.102 Y10.604 E13.1939
G1 X-4.102 Y50.983 E15.89143
G1 X-34.484 Y50.983 E17.92108
G1 X-34.484 Y10.662 E20.61477
G1 X-35.019 Y10.066 F4800
;TYPE:External perimeter
G1 F900
G1 X-3.567 Y10.069 E22.71598
G1 X-3.567 Y51.519 E25.48507
G1 X-35.019 Y51.519 E27.58628
G1 X-35.019 Y10.126 E30.35154
G1 X-34.638 Y10.187 F4800
;LAYER_CHANGE
;Z:0.5
;HEIGHT:0.2
G1 Z.5 F4800
M104 S210 ; set temperature
G1 X-34.731 Y11.183
;TYPE:Solid infill
;WIDTH:0.452546
G1 F1800
G1 X-34.086 Y10.538 E30.3826
G1 X-33.507 Y10.538 E30.40233
G1 X-34.548 Y11.579 E30.45248
G1 X-34.548 Y12.158 E30.47221
G1 X-32.928 Y10.538 E30.55026
G1 X-32.348 Y10.538 E30.56998
G1 X-34.548 Y12.738 E30.67593
G1 X-34.548 Y13.317 E30.69566
G1 X-31.769 Y10.538 E30.82951
G1 X-31.19 Y10.538 E30.84924
G1 X-34.548 Y13.896 E31.01098
G1 X-34.548 Y14.476 E31.03072
G1 X-30.611 Y10.538 E31.22036
G1 X-30.031 Y10.538 E31.24009
G1 X-34.548 Y15.055 E31.45764
G1 X-34.548 Y15.634 E31.47737
G1 X-29.452 Y10.539 E31.72282
G1 X-28.873 Y10.539 E31.74255
G1 X-34.548 Y16.213 E32.0159
G1 X-34.548 Y16.793 E32.03563
G1 X-28.294 Y10.539 E32.33688
G1 X-27.714 Y10.539 E32.35661
G1 X-34.548 Y17.372 E32.68576
G1 X-34.548 Y17.951 E32.70549
G1 X-27.135 Y10.539 E33.06254
G1 X-26.556 Y10.539 E33.08227
G1 X-34.548 Y18.531 E33.46722
G1 X-34.548 Y19.11 E33.48695
G1 X-25.977 Y10.539 E33.89981
G1 X-25.398 Y10.539 E33.91953
G1 X-34.548 Y19.689 E34.36029
G1 X-34.548 Y20.269 E34.38002
G1 X-24.818 Y10.539 E34.84867
G1 X-24.239 Y10.539 E34.8684
G1 X-34.548 Y20.848 E35.36496
G1 X-34.548 Y21.427 E35.38469
G1 X-23.66 Y10.539 E35.90914
G1 X-23.081 Y10.539 E35.92887
G1 X-34.548 Y22.006 E36.48123
G1 X-34.548 Y22.586 E36.50096
G1 X-22.501 Y10.539 E37.08121
G1 X-21.922 Y10.54 E37.10094
G1 X-34.548 Y23.165 E37.7091
G1 X-34.548 Y23.744 E37.72883
G1 X-21.343 Y10.54 E38.36489
G1 X-20.764 Y10.54 E38.38462
G1 X-34.548 Y24.324 E39.04857
G1 X-34.548 Y24.903 E39.0683
G1 X-20.185 Y10.54 E39.76016
G1 X-19.605 Y10.54 E39.77989
G1 X-34.548 Y25.482 E40.49965
G1 X-34.548 Y26.062 E40.51938
G1 X-19.026 Y10.54 E41.26704
G1 X-18.447 Y10.54 E41.28677
G1 X-34.548 Y26.641 E42.06233
G1 X-34.548 Y27.22 E42.08206
G1 X-17.868 Y10.54 E42.88552
G1 X-17.288 Y10.54 E42.90525
G1 X-34.548 Y27.799 E43.73661
G1 X-34.548 Y28.379 E43.75634
G1 X-16.709 Y10.54 E44.6156
G1 X-16.13 Y10.54 E44.63533
G1 X-34.548 Y28.958 E45.52249
G1 X-34.548 Y29.537 E45.54223
G1 X-15.551 Y10.54 E46.45729
G1 X-14.972 Y10.54 E46.47702
G1 X-34.548 Y30.117 E47.41998
G1 X-34.548 Y30.696 E47.43971
G1 X-14.392 Y10.54 E48.41058
G1 X-13.813 Y10.541 E48.4303
G1 X-34.548 Y31.275 E49.42907
G1 X-34.548 Y31.854 E49.4488
G1 X-13.234 Y10.541 E50.47547
G1 X-12.655 Y10.541 E50.49519
G1 X-34.548 Y32.434 E51.54976
G1 X-34.548 Y33.013 E51.56949
G1 X-12.075 Y10.541 E52.65196
G1 X-11.496 Y10.541 E52.67169
